X: 20821
T: PROVIDENCE SETT (tune 1)
C:
%R: jig
B: Elias Howe "The Musician's Companion" 1843 p.82 #1
S: http://imslp.org/wiki/The_Musician's_Companion_(Howe,_Elias)
Z: 2015 John Chambers <jc:trillian.mit.edu>
M: 6/8
L: 1/8
K: F
% - - - - - - - - - - - - - - - - - - - - - - - - - - - - -
V: 1 name="1"
A/B/ |\
c2c d2d | c2f a2z | ag^f gde | gfe fAB |\
c2c d2d | c2f a2c | ag^f gde | f3 z2 H|]
a |\
agf gdg | ece fdg | egc dag | c3 cfg |\
a2a c'2c' | f2f a2a | ag^f gde | f3 "^D.C."z2 |]
K: Bb
z |\
F2F FdB | F2F FBd | fec AFA | B2d f2z |\
F2F FdB | F2F FBd | gfc AFA | (B3 "^D.C."B2) |]
% - - - - - - - - - - Dance description - - - - - - - - - -
%%begintext align
%% First four right and left,
%% balance your partners,
%% and turn,
%% -- ladies chain,
%% promenade four,
%% sides the same.
%%endtext
% - - - - - - - - - - - - - - - - - - - - - - - - - - - - -
%%sep 1 1 300

%%sep 1 1 500

